X:1
T:Twentynine Palms, 76.76 D
T:Twentynine Palms, 76.76 D
T:Daniel Brink Towner, 1899
T:Public Domain Courtesy of the Cyber Hymnal™
C:Daniel Brink Towner, 1899
Z:Public Domain
Z:Courtesy of the Cyber Hymnal™
%%score ( 1 2 ) ( 3 4 )
L:1/8
Q:1/4=103
M:6/8
K:D
V:1 treble 
V:2 treble 
V:3 bass 
V:4 bass 
V:1
 [DF]2 [DF] (FE)D | [FA]2 [GB] [FA]3 | D2 [DF] [FA]2 [DF] | [DF]3 [CE]3 | [DF]2 [DF] (FE)D | %5
 [FA]2 [GB] [FA]3 | [FA]2 [Fd] [FA]2 [DF] | [CE]3 D3 | [CE]2 [DF] ([EG][DF])[CE] | %9
 [DF]2 [FA] [Fd]3 | [CE]2 [DF] ([EG][DF])[CE] | [^EB]3 [FA]3 | [Fd]2 [FA] ([FA][EG])[DF] | %13
 [DG]2 [DA] !fermata![DB]3 | [DA]2 [Fd] [FA]2 [DF] | [CE]3 !fermata!D3 |] %16
V:2
 x3 D2 D | x6 | D2 x4 | x6 | x3 D2 D | x6 | x6 | x3 D3 | x6 | x6 | x6 | x6 | x6 | x6 | x6 | %15
 x3 D3 |] %16
V:3
 [D,A,]2 [D,A,] (A,G,)[D,F,] | [D,D]2 [D,D] [D,D]3 | [D,F,]2 [D,A,] [D,D]2 [D,A,] | %3
 [A,,A,]3 [A,,A,]3 | [D,A,]2 [D,A,] (A,G,)[D,F,] | [D,D]2 [D,D] [D,D]3 | %6
 [D,D]2 [D,A,] [D,D]2 [D,A,] | [A,,G,]3 [D,F,]3 | [A,,A,]2 [A,,A,] [A,,A,]2 [A,,A,] | %9
 [D,A,]2 [D,A,] [D,A,]3 | [A,,A,]2 [A,,A,] [A,,A,]2 [A,,A,] | [D,^G,]3 [D,A,]3 | %12
 [D,A,]2 [D,D] [D,D]2 A, | [B,,G,]2 [A,,F,] !fermata![G,,G,]3 | [D,F,]2 [D,A,] [D,D]2 [D,A,] | %15
 [A,,G,]3 !fermata![D,F,]3 |] %16
V:4
 x3 D,2 x | x6 | x6 | x6 | x3 D,2 x | x6 | x6 | x6 | x6 | x6 | x6 | x6 | x5 (D,/=C,/) | x6 | x6 | %15
 x6 |] %16

